src/svg/closedhand.svg

<?xml version="1.0" encoding="UTF-8" standalone="no"?>
<svg width="35px" height="35px" viewBox="0 0 35 35" version="1.1" xmlns="http://www.w3.org/2000/svg" xmlns:xlink="http://www.w3.org/1999/xlink">
    <defs></defs>
    <g id="Page-1" stroke="none" stroke-width="1" fill="none" fill-rule="evenodd">
        <g id="closedhand">
            <g id="bg-copy" fill="#FFFFFF" opacity="0.00999999978">
                <rect id="bg" x="0" y="0" width="35" height="35"></rect>
            </g>
            <path d="M13.5732,12.0361 C14.0532,11.8581 15.0002,11.9671 15.2502,12.5091 C15.4632,12.9711 15.6462,13.7501 15.6562,13.5841 C15.6802,13.2151 15.6322,12.4171 15.7932,12.0001 C15.9102,11.6961 16.1402,11.4101 16.4792,11.3091 C16.7642,11.2231 17.0992,11.1931 17.3952,11.2541 C17.7082,11.3181 18.0372,11.5411 18.1602,11.7531 C18.5222,12.3761 18.5282,13.6521 18.5452,13.5841 C18.6092,13.3121 18.6152,12.3551 18.8282,12.0001 C18.9692,11.7651 19.3252,11.5551 19.5152,11.5211 C19.8092,11.4691 20.1712,11.4531 20.4792,11.5131 C20.7282,11.5621 21.0652,11.8571 21.1562,12.0001 C21.3752,12.3441 21.4982,13.3161 21.5352,13.6581 C21.5512,13.7991 21.6092,13.2651 21.8282,12.9221 C22.2342,12.2831 23.6722,12.1591 23.7262,13.5611 C23.7522,14.2151 23.7462,14.1851 23.7462,14.6251 C23.7462,15.1411 23.7342,15.4531 23.7062,15.8271 C23.6762,16.2261 23.5902,17.1311 23.4652,17.5691 C23.3792,17.8701 23.0942,18.5471 22.8122,18.9531 C22.8122,18.9531 21.7382,20.2031 21.6212,20.7651 C21.5042,21.3281 21.5432,21.3321 21.5192,21.7301 C21.4962,22.1291 21.6402,22.6531 21.6402,22.6531 C21.6402,22.6531 20.8392,22.7571 20.4062,22.6871 C20.0152,22.6251 19.5312,21.8471 19.4062,21.6091 C19.2342,21.2811 18.8672,21.3441 18.7242,21.5861 C18.5002,21.9691 18.0152,22.6561 17.6742,22.6991 C17.0052,22.7831 15.6192,22.7291 14.5342,22.7191 C14.5342,22.7191 14.7192,21.7081 14.3072,21.3611 C14.0022,21.1011 13.4772,20.5771 13.1632,20.3011 L12.3312,19.3801 C12.0482,19.0201 11.3292,18.4511 11.0882,17.3951 C10.8752,16.4591 10.8962,16.0001 11.1252,15.6251 C11.3572,15.2441 11.7952,15.0361 11.9792,15.0001 C12.1872,14.9581 12.6712,14.9611 12.8542,15.0621 C13.0772,15.1851 13.1672,15.2211 13.3422,15.4531 C13.5722,15.7601 13.6542,15.9091 13.5552,15.5741 C13.4792,15.3121 13.2332,14.9791 13.1212,14.6041 C13.0122,14.2431 12.7202,13.6611 12.7412,13.0781 C12.7492,12.8571 12.8442,12.3071 13.5732,12.0361" id="hand" fill="#FFFFFF"></path>
            <path d="M13.5732,12.0361 C14.0532,11.8581 15.0002,11.9671 15.2502,12.5091 C15.4632,12.9711 15.6462,13.7501 15.6562,13.5841 C15.6802,13.2151 15.6322,12.4171 15.7932,12.0001 C15.9102,11.6961 16.1402,11.4101 16.4792,11.3091 C16.7642,11.2231 17.0992,11.1931 17.3952,11.2541 C17.7082,11.3181 18.0372,11.5411 18.1602,11.7531 C18.5222,12.3761 18.5282,13.6521 18.5452,13.5841 C18.6092,13.3121 18.6152,12.3551 18.8282,12.0001 C18.9692,11.7651 19.3252,11.5551 19.5152,11.5211 C19.8092,11.4691 20.1712,11.4531 20.4792,11.5131 C20.7282,11.5621 21.0652,11.8571 21.1562,12.0001 C21.3752,12.3441 21.4982,13.3161 21.5352,13.6581 C21.5512,13.7991 21.6092,13.2651 21.8282,12.9221 C22.2342,12.2831 23.6722,12.1591 23.7262,13.5611 C23.7522,14.2151 23.7462,14.1851 23.7462,14.6251 C23.7462,15.1411 23.7342,15.4531 23.7062,15.8271 C23.6762,16.2261 23.5902,17.1311 23.4652,17.5691 C23.3792,17.8701 23.0942,18.5471 22.8122,18.9531 C22.8122,18.9531 21.7382,20.2031 21.6212,20.7651 C21.5042,21.3281 21.5432,21.3321 21.5192,21.7301 C21.4962,22.1291 21.6402,22.6531 21.6402,22.6531 C21.6402,22.6531 20.8392,22.7571 20.4062,22.6871 C20.0152,22.6251 19.5312,21.8471 19.4062,21.6091 C19.2342,21.2811 18.8672,21.3441 18.7242,21.5861 C18.5002,21.9691 18.0152,22.6561 17.6742,22.6991 C17.0052,22.7831 15.6192,22.7291 14.5342,22.7191 C14.5342,22.7191 14.7192,21.7081 14.3072,21.3611 C14.0022,21.1011 13.4772,20.5771 13.1632,20.3011 L12.3312,19.3801 C12.0482,19.0201 11.3292,18.4511 11.0882,17.3951 C10.8752,16.4591 10.8962,16.0001 11.1252,15.6251 C11.3572,15.2441 11.7952,15.0361 11.9792,15.0001 C12.1872,14.9581 12.6712,14.9611 12.8542,15.0621 C13.0772,15.1851 13.1672,15.2211 13.3422,15.4531 C13.5722,15.7601 13.6542,15.9091 13.5552,15.5741 C13.4792,15.3121 13.2332,14.9791 13.1212,14.6041 C13.0122,14.2431 12.7202,13.6611 12.7412,13.0781 C12.7492,12.8571 12.8442,12.3071 13.5732,12.0361 L13.5732,12.0361 Z" id="hand-border" stroke="#000000" stroke-width="0.75" stroke-linejoin="round"></path>
            <path d="M20.5664,19.7344 L20.5664,16.2754" id="line3" stroke="#000000" stroke-width="0.75" stroke-linecap="round"></path>
            <path d="M18.5508,19.7461 L18.5348,16.2731" id="line2" stroke="#000000" stroke-width="0.75" stroke-linecap="round"></path>
            <path d="M16.5547,16.3047 L16.5757,19.7307" id="line1" stroke="#000000" stroke-width="0.75" stroke-linecap="round"></path>
        </g>
    </g>
</svg>

<svg height="35" viewBox="0 0 35 35" width="35" xmlns="http://www.w3.org/2000/svg"><g fill="none" fill-rule="evenodd"><path d="m13.5732 12.0361c.48-.178 1.427-.069 1.677.473.213.462.396 1.241.406 1.075.024-.369-.024-1.167.137-1.584.117-.304.347-.59.686-.691.285-.086.62-.116.916-.055.313.064.642.287.765.499.362.623.368 1.899.385 1.831.064-.272.07-1.229.283-1.584.141-.235.497-.445.687-.479.294-.052.656-.068.964-.008.249.049.586.344.677.487.219.344.342 1.316.379 1.658.016.141.074-.393.293-.736.406-.639 1.844-.763 1.898.639.026.654.02.624.02 1.064 0 .516-.012.828-.04 1.202-.03.399-.116 1.304-.241 1.742-.086.301-.371.978-.653 1.384 0 0-1.074 1.25-1.191 1.812-.117.563-.078.567-.102.965-.023.399.121.923.121.923s-.801.104-1.234.034c-.391-.062-.875-.84-1-1.078-.172-.328-.539-.265-.682-.023-.224.383-.709 1.07-1.05 1.113-.669.084-2.055.03-3.14.02 0 0 .185-1.011-.227-1.358-.305-.26-.83-.784-1.144-1.06l-.832-.921c-.283-.36-1.002-.929-1.243-1.985-.213-.936-.192-1.395.037-1.77.232-.381.67-.589.854-.625.208-.042.692-.039.875.062.223.123.313.159.488.391.23.307.312.456.213.121-.076-.262-.322-.595-.434-.97-.109-.361-.401-.943-.38-1.526.008-.221.103-.771.832-1.042" fill="#fff"/><g stroke="#000" stroke-width=".75"><path d="m13.5732 12.0361c.48-.178 1.427-.069 1.677.473.213.462.396 1.241.406 1.075.024-.369-.024-1.167.137-1.584.117-.304.347-.59.686-.691.285-.086.62-.116.916-.055.313.064.642.287.765.499.362.623.368 1.899.385 1.831.064-.272.07-1.229.283-1.584.141-.235.497-.445.687-.479.294-.052.656-.068.964-.008.249.049.586.344.677.487.219.344.342 1.316.379 1.658.016.141.074-.393.293-.736.406-.639 1.844-.763 1.898.639.026.654.02.624.02 1.064 0 .516-.012.828-.04 1.202-.03.399-.116 1.304-.241 1.742-.086.301-.371.978-.653 1.384 0 0-1.074 1.25-1.191 1.812-.117.563-.078.567-.102.965-.023.399.121.923.121.923s-.801.104-1.234.034c-.391-.062-.875-.84-1-1.078-.172-.328-.539-.265-.682-.023-.224.383-.709 1.07-1.05 1.113-.669.084-2.055.03-3.14.02 0 0 .185-1.011-.227-1.358-.305-.26-.83-.784-1.144-1.06l-.832-.921c-.283-.36-1.002-.929-1.243-1.985-.213-.936-.192-1.395.037-1.77.232-.381.67-.589.854-.625.208-.042.692-.039.875.062.223.123.313.159.488.391.23.307.312.456.213.121-.076-.262-.322-.595-.434-.97-.109-.361-.401-.943-.38-1.526.008-.221.103-.771.832-1.042z" stroke-linejoin="round"/><path d="m20.5664 19.7344v-3.459" stroke-linecap="round"/><path d="m18.5508 19.7461-.016-3.473" stroke-linecap="round"/><path d="m16.5547 16.3047.021 3.426" stroke-linecap="round"/></g></g></svg>
